imgs/Logo.svg

<svg width="124" height="40" viewBox="0 0 124 40" fill="none" xmlns="http://www.w3.org/2000/svg">
<path d="M57.6522 22.2226H44.0184C43.3987 22.2226 42.9292 22.7665 43.0419 23.3667C43.0607 23.498 43.0795 23.6293 43.0983 23.7605C43.1922 24.2857 43.3424 24.7921 43.549 25.2985C43.8682 26.0675 44.3753 26.7427 45.0701 27.3429C45.7462 27.9431 46.7039 28.2244 47.9246 28.2244C49.1452 28.2244 50.0842 27.9243 50.779 27.3429C51.3236 26.874 51.7368 26.3488 52.056 25.7862C52.225 25.4861 52.5631 25.2985 52.9011 25.2985H56.7133C57.4081 25.2985 57.8776 25.9925 57.6522 26.6302C57.4832 27.1178 57.2767 27.5867 57.0325 27.9994C56.6006 28.7684 56.1311 29.4436 55.6053 30.0062C55.0795 30.5689 54.5349 31.0378 53.9339 31.4129C53.333 31.788 52.7696 32.0881 52.2062 32.332C50.8354 32.8571 49.4081 33.1385 47.887 33.1385C45.8964 33.1009 44.1311 32.6883 42.5912 31.9006C41.9339 31.5442 41.2954 31.0941 40.6569 30.5502C40.0185 30.0062 39.4551 29.3123 38.9668 28.487C38.4785 27.6618 38.0842 26.6677 37.7837 25.5048C37.4832 24.342 37.333 23.0103 37.333 21.4536C37.333 19.9156 37.4832 18.5652 37.7837 17.4023C38.0842 16.2395 38.4785 15.2454 38.9668 14.4014C39.4551 13.5574 40.0185 12.8634 40.6569 12.3007C41.2954 11.7381 41.9339 11.2879 42.5912 10.9316C44.1123 10.1063 45.8588 9.67492 47.8307 9.5999C47.8682 9.5999 47.9058 9.5999 47.9433 9.5999C49.5584 9.67492 51.0607 10.0125 52.4692 10.6127C53.0701 10.8753 53.671 11.2317 54.272 11.663C54.8729 12.0944 55.4363 12.6196 55.9621 13.2573C56.4879 13.895 56.9386 14.6452 57.333 15.5267C57.7274 16.4083 58.0278 17.4211 58.1968 18.5652C58.2532 19.0153 58.3095 19.4655 58.3471 19.9344C58.3846 20.4033 58.4222 20.9097 58.4222 21.4536C58.441 21.4161 58.5537 22.2226 57.6522 22.2226ZM51.1546 18.5277C51.8682 18.5277 52.3753 17.7774 52.056 17.1397C52.056 17.1397 52.056 17.121 52.0372 17.121C51.8119 16.6521 51.5114 16.2207 51.117 15.8268C50.7227 15.4517 50.272 15.1329 49.7461 14.9078C49.2203 14.6827 48.5818 14.5702 47.887 14.5702C47.1734 14.5702 46.5537 14.6827 46.0278 14.9078C45.502 15.1329 45.0325 15.433 44.6569 15.8268C44.2626 16.2207 43.9621 16.6333 43.718 17.121V17.1397C43.3987 17.7962 43.9058 18.5464 44.6194 18.5464H51.1546V18.5277Z" fill="#A12B52"/>
<path d="M34.6103 0.128204C31.6056 0.128204 29.1831 2.54771 29.1831 5.54864V21.2473C29.1831 21.9037 29.1455 22.5602 29.0704 23.2541C28.9953 23.9293 28.8075 24.5483 28.507 25.111C28.2066 25.6736 27.7559 26.1425 27.1549 26.5176C26.554 26.8928 25.6901 27.0803 24.6009 27.0803C23.5117 27.0803 22.6479 26.8928 22.0469 26.5176C21.446 26.1425 20.9953 25.6736 20.6948 25.111C20.3944 24.5483 20.2066 23.9293 20.1315 23.2541C20.0563 22.5789 20.0188 21.9037 20.0188 21.2473V5.06099C17.0141 5.06099 14.5915 7.48049 14.5915 10.4814V21.2285C14.5915 21.885 14.554 22.5414 14.4789 23.2354C14.4038 23.9106 14.216 24.5295 13.9155 25.0922C13.615 25.6549 13.1643 26.1238 12.5634 26.4989C11.9624 26.874 11.0986 27.0616 10.0094 27.0616C8.92019 27.0616 8.05634 26.874 7.4554 26.4989C6.85446 26.1238 6.40376 25.6549 6.10329 25.0922C5.80282 24.5295 5.61502 23.9106 5.53991 23.2354C5.46479 22.5602 5.42723 21.885 5.42723 21.2285V9.99377C2.42253 9.99377 0 12.432 0 15.4142V21.2285C0 22.7665 0.150235 24.1169 0.450704 25.2798C0.751174 26.4426 1.12676 27.4367 1.57746 28.2807C2.04695 29.1247 2.57277 29.8187 3.17371 30.3813C3.77465 30.944 4.39437 31.3942 5.01408 31.7505C6.46009 32.5758 8.13146 33.0259 9.99061 33.0822C11.8873 33.0259 13.5587 32.5758 15.0235 31.7505C15.6432 31.3942 16.2629 30.944 16.8451 30.3813C16.9953 30.2313 17.1455 30.0813 17.2958 29.9125C17.446 30.0813 17.5962 30.2313 17.7465 30.3813C18.3474 30.944 18.9671 31.3942 19.5869 31.7505C21.0329 32.5758 22.7042 33.0259 24.5634 33.0822C26.4601 33.0259 28.1315 32.5758 29.5962 31.7505C30.216 31.3942 30.8357 30.944 31.4178 30.3813C32.0188 29.8187 32.5446 29.1247 33.0141 28.2807C33.4836 27.4367 33.8592 26.4426 34.1408 25.2798C34.4225 24.1169 34.554 22.7852 34.554 21.2285L34.6103 0.128204Z" fill="#A12B52"/>
<path d="M74.8733 31.713C74.7231 32.1444 74.3287 32.4445 73.8592 32.4445H71.0048H68.1503C67.6996 32.4445 67.2865 32.1444 67.1362 31.713L60.5071 11.4004C60.2818 10.7065 60.7888 10.0125 61.5212 10.0125H64.7325C65.1832 10.0125 65.5963 10.3126 65.7466 10.744L69.9907 23.7043C70.31 24.6796 71.6808 24.6796 72.0001 23.7043L74.4414 16.2395L78.5353 3.71056C79.4367 0.99097 82.3663 -0.509496 85.0893 0.390784L74.8733 31.713Z" fill="#EF4273"/>
<path d="M101.052 14.2513C100.564 13.4073 100 12.7134 99.3619 12.1507C98.7235 11.588 98.085 11.1379 97.4277 10.7815C95.8878 9.95626 94.1413 9.50612 92.207 9.44985C90.3479 9.44985 88.7704 9.73119 87.4746 10.2751C86.1788 10.819 85.1084 11.6068 84.2634 12.6196C83.4183 13.6324 82.8173 14.8703 82.423 16.3332C82.0474 17.7962 81.8408 19.4467 81.8408 21.3035V38.5589C81.8408 39.2904 82.423 39.8718 83.1554 39.8718H85.7845C86.5169 39.8718 87.099 39.2904 87.099 38.5589V29.8749C87.3807 30.2688 87.7 30.6064 88.038 30.9065C88.808 31.563 89.5591 32.0319 90.2915 32.3132C91.1178 32.6321 91.9629 32.8196 92.8455 32.8759C92.9206 32.8759 92.977 32.8759 93.0521 32.8759C94.8361 32.8384 96.4324 32.4257 97.8221 31.638C98.4418 31.2816 99.0427 30.8315 99.6249 30.2876C100.207 29.7437 100.714 29.0497 101.184 28.2244C101.634 27.3992 102.01 26.4051 102.292 25.261C102.573 24.1169 102.705 22.7665 102.705 21.2285C102.705 19.6905 102.554 18.3589 102.235 17.196C101.935 16.0707 101.54 15.0766 101.052 14.2513ZM97.0897 23.3854C96.977 24.1544 96.7328 24.8671 96.376 25.5236C96.0192 26.18 95.5122 26.7427 94.8549 27.1741C94.1976 27.6242 93.315 27.8306 92.2258 27.8306C91.1366 27.8306 90.254 27.6055 89.5967 27.1741C88.9394 26.724 88.4136 26.18 88.038 25.5236C87.6624 24.8671 87.4183 24.1544 87.3056 23.3854C87.1929 22.6164 87.1366 21.9037 87.1366 21.266C87.1366 20.4783 87.1929 19.6905 87.2868 18.9028C87.3995 18.115 87.6061 17.4211 87.9441 16.7834C88.2821 16.1457 88.7892 15.6393 89.4652 15.2642C90.1413 14.889 91.0615 14.6827 92.207 14.6827C93.2962 14.6827 94.1789 14.9078 94.8361 15.3392C95.4934 15.7893 96.0192 16.3332 96.3573 16.9897C96.7141 17.6461 96.9394 18.3776 97.0709 19.1279C97.1836 19.8968 97.2399 20.6096 97.2399 21.2473C97.2587 21.9037 97.2023 22.6164 97.0897 23.3854Z" fill="#EF4273"/>
<path d="M123.324 16.277C122.874 14.9265 122.291 13.82 121.578 12.9384C120.864 12.0569 120.094 11.3817 119.268 10.9128C118.442 10.4439 117.653 10.0875 116.92 9.88123C116.188 9.65616 115.531 9.54363 114.986 9.50612C114.442 9.46861 114.122 9.46861 114.028 9.46861C113.916 9.46861 113.578 9.48736 113.052 9.50612C112.526 9.54363 111.888 9.65616 111.155 9.88123C110.423 10.1063 109.634 10.4439 108.808 10.9128C107.982 11.3817 107.212 12.0569 106.498 12.9384C105.784 13.82 105.202 14.9453 104.751 16.277C104.301 17.6274 104.057 19.2779 104.057 21.2473V31.2629C104.057 31.9193 104.582 32.4445 105.24 32.4445H108.263C108.92 32.4445 109.446 31.9193 109.446 31.2629V21.266C109.446 20.6096 109.503 19.9531 109.615 19.2779C109.728 18.6027 109.953 17.9837 110.273 17.4211C110.592 16.8584 111.061 16.3895 111.643 16.0331C112.226 15.658 113.014 15.4892 113.991 15.4892C114.967 15.4892 115.756 15.6768 116.338 16.0331C116.92 16.4083 117.39 16.8584 117.709 17.4211C118.028 17.9837 118.254 18.6027 118.366 19.2779C118.479 19.9531 118.536 20.6283 118.536 21.266V31.2629C118.536 31.9193 119.061 32.4445 119.719 32.4445H122.817C123.474 32.4445 124 31.9193 124 31.2629V21.266C124 19.2779 123.775 17.6274 123.324 16.277Z" fill="#EF4273"/>
</svg>

<svg width="124" height="40" fill="none" xmlns="http://www.w3.org/2000/svg"><path d="M57.652 22.223H44.018c-.62 0-1.089.544-.976 1.144l.056.393c.094.526.244 1.032.451 1.538.32.77.826 1.445 1.521 2.045.676.6 1.634.881 2.855.881 1.22 0 2.16-.3 2.854-.881a5.822 5.822 0 001.277-1.557.986.986 0 01.845-.488h3.812a1 1 0 01.94 1.332 7.591 7.591 0 01-.62 1.37c-.432.768-.902 1.444-1.428 2.006a8.32 8.32 0 01-1.671 1.407c-.601.375-1.164.675-1.728.919-1.37.525-2.798.806-4.319.806-1.99-.037-3.756-.45-5.296-1.237a11.298 11.298 0 01-1.934-1.35c-.638-.545-1.202-1.239-1.69-2.064-.489-.825-.883-1.82-1.183-2.982-.3-1.163-.451-2.495-.451-4.051 0-1.538.15-2.889.45-4.052.301-1.163.695-2.157 1.184-3a8.28 8.28 0 011.69-2.101 10.466 10.466 0 011.934-1.37c1.521-.825 3.268-1.256 5.24-1.331h.112a12.96 12.96 0 014.526 1.013 9.954 9.954 0 011.803 1.05c.6.431 1.164.957 1.69 1.594.526.638.977 1.388 1.371 2.27.394.881.695 1.894.864 3.038.056.45.112.9.15 1.37.038.468.075.975.075 1.519.019-.038.132.769-.77.769zm-6.497-3.695c.713 0 1.22-.75.901-1.388 0 0 0-.019-.019-.019a4.67 4.67 0 00-.92-1.294 4.625 4.625 0 00-1.37-.92c-.527-.224-1.165-.337-1.86-.337-.714 0-1.333.113-1.86.338-.525.225-.995.525-1.37.919a4.857 4.857 0 00-.939 1.294v.019c-.32.656.188 1.406.901 1.406h6.536v-.018zM34.61.128a5.414 5.414 0 00-5.427 5.42v15.7c0 .656-.038 1.312-.113 2.006a5.1 5.1 0 01-.563 1.857c-.3.563-.751 1.031-1.352 1.407-.601.375-1.465.562-2.554.562-1.09 0-1.953-.187-2.554-.562-.601-.376-1.052-.844-1.352-1.407a5.101 5.101 0 01-.564-1.857 18.204 18.204 0 01-.112-2.007V5.061a5.415 5.415 0 00-5.427 5.42V21.23c0 .656-.038 1.312-.113 2.006a5.099 5.099 0 01-.563 1.857c-.301.563-.752 1.032-1.353 1.407-.6.375-1.464.563-2.554.563-1.089 0-1.953-.188-2.554-.563-.6-.375-1.051-.844-1.352-1.407a5.1 5.1 0 01-.563-1.857 18.224 18.224 0 01-.113-2.006V9.994A5.426 5.426 0 000 15.414v5.815c0 1.538.15 2.888.45 4.05.301 1.164.677 2.158 1.127 3.002.47.844.996 1.538 1.597 2.1.6.563 1.22 1.013 1.84 1.37 1.446.825 3.117 1.275 4.977 1.331 1.896-.056 3.568-.506 5.033-1.332a9.257 9.257 0 002.272-1.837c.15.168.3.318.45.468a9.989 9.989 0 001.84 1.37c1.447.825 3.118 1.275 4.977 1.331 1.897-.056 3.569-.506 5.033-1.332a9.251 9.251 0 001.822-1.369c.6-.562 1.127-1.256 1.596-2.1.47-.844.845-1.838 1.127-3.001.282-1.163.413-2.495.413-4.052l.056-21.1z" fill="#A12B52"/><path d="M74.873 31.713c-.15.431-.544.731-1.014.731H68.15c-.45 0-.864-.3-1.014-.731L60.507 11.4a1.055 1.055 0 011.014-1.388h3.212c.45 0 .863.3 1.014.732l4.244 12.96c.319.976 1.69.976 2.01 0l2.44-7.465 4.094-12.528C79.437.99 82.366-.51 85.09.39L74.873 31.713zm26.179-17.462a8.307 8.307 0 00-1.69-2.1 10.463 10.463 0 00-1.934-1.37c-1.54-.825-3.287-1.275-5.221-1.331-1.86 0-3.437.281-4.732.825-1.296.544-2.367 1.332-3.212 2.345-.845 1.012-1.446 2.25-1.84 3.713-.376 1.463-.582 3.114-.582 4.97V38.56c0 .731.582 1.313 1.314 1.313h2.63c.732 0 1.314-.582 1.314-1.313v-8.684c.282.394.601.731.939 1.032.77.656 1.521 1.125 2.254 1.406a8.54 8.54 0 002.553.563h.207c1.784-.038 3.38-.45 4.77-1.238a9.826 9.826 0 001.803-1.35c.582-.544 1.089-1.238 1.559-2.064.45-.825.826-1.819 1.108-2.963.281-1.144.413-2.494.413-4.032 0-1.538-.151-2.87-.47-4.033-.3-1.125-.695-2.12-1.183-2.945zm-3.962 9.134a6.39 6.39 0 01-.714 2.139 4.566 4.566 0 01-1.521 1.65c-.657.45-1.54.657-2.63.657-1.088 0-1.971-.226-2.628-.657-.658-.45-1.183-.994-1.559-1.65a6.024 6.024 0 01-.732-2.139 14.77 14.77 0 01-.17-2.119c0-.788.057-1.575.15-2.363.114-.788.32-1.482.658-2.12.338-.637.845-1.144 1.521-1.519.676-.375 1.596-.581 2.742-.581 1.09 0 1.972.225 2.63.656.656.45 1.182.994 1.52 1.65.357.657.582 1.389.714 2.139.113.769.169 1.482.169 2.12.019.656-.038 1.368-.15 2.137zm26.234-7.108c-.45-1.35-1.033-2.457-1.746-3.339-.714-.881-1.484-1.556-2.31-2.025-.826-.47-1.615-.825-2.348-1.032a8.678 8.678 0 00-1.934-.375c-.544-.037-.864-.037-.958-.037-.112 0-.45.018-.976.037a8.618 8.618 0 00-1.897.375c-.732.225-1.521.563-2.347 1.032-.826.469-1.596 1.144-2.31 2.025-.714.882-1.296 2.007-1.747 3.339-.45 1.35-.694 3-.694 4.97v10.016c0 .656.525 1.181 1.183 1.181h3.023c.657 0 1.183-.525 1.183-1.181v-9.997c0-.656.057-1.313.169-1.988a5.6 5.6 0 01.658-1.857 3.88 3.88 0 011.37-1.388c.583-.375 1.371-.544 2.348-.544.976 0 1.765.188 2.347.544.582.375 1.052.825 1.371 1.388a5.6 5.6 0 01.657 1.857c.113.675.17 1.35.17 1.988v9.997c0 .656.525 1.181 1.183 1.181h3.098c.657 0 1.183-.525 1.183-1.181v-9.997c0-1.988-.225-3.639-.676-4.989z" fill="#EF4273"/></svg>
